X:1
T: Miss Mary Douglas
C:
R:Jig
Q:180
K:Bb
M:6/8
L:1/16
|:E2|D3EF2 F4B2|G2E2G2 F4E2|D3EF2 F2B2d2|d6c4E2|
D3EF2 F4B2|G2E2G2 F4g2|f2d2B2 e2c2A2|B6B,4:|
|:f2|f3gf2 b4f2|d6B4d2|c3dc2 f4c2|A6 F2G2A2|
B6 G2A2B2|c6 A2B2c2|d2e2f2 f2e2d2|c2B2A2 G2F2E2|
D3EF2 F4B2|G2E2G2 F4E2|D3EF2 F2B2d2|d6c4E2|
D3EF2 F4B2|G2E2G2 F4g2|f2d2B2 e2c2A2|B6B,4:|
